X: 5
T: Sonny's Return
R: reel
M: 4/4
L: 1/8
K: Ador
|: eA ~A2 cBAG | EG ~G2 AGEG | eA ~A2 cBAB | cded eaag |eA ~A2 cBAG | EG ~G2 AGEG | cdeg agec | AcBG A4 :||: ~c2 gc acgc | cdeg aege | ~c2 gc acgc | ~d2 ed cAAB |~c2 gc acgc | cdeg agea | gc'ba gedB | AcBG A4 :|


Tune 2083	Setting 15477

